gama.ui.shared/icons_svg/dark/experiment/errors.show.svg

<svg height="25" viewBox="-886.774 -3200.298 25 25" width="25" xmlns="http://www.w3.org/2000/svg"><g fill="none"><circle cx="-874.274" cy="-3187.798" fill="#666" r="12"/><circle cx="-874.274" cy="-3187.798" r="12" stroke="#fff" stroke-linecap="round" stroke-linejoin="round" stroke-width=".25"/><path d="m-881.2479-3187.9237c1.4977-3.856 5.8296-5.7665 9.6786-4.2689 1.9595.7628 3.5131 2.3096 4.269 4.2689.0349.084.0349.175 0 .252-1.4907 3.849-5.8296 5.7667-9.6786 4.2689-1.9595-.7628-3.5061-2.3094-4.269-4.2689-.0349-.084-.0349-.175 0-.252zm4.5279 3.8701c3.4502 1.3366 7.3272-.336 8.7198-3.7441-.7068-1.7146-2.0854-3.0723-3.821-3.7441-3.4501-1.3366-7.3202.3358-8.7198 3.7441.7068 1.7147 2.0854 3.0722 3.821 3.7441zm2.4494-.9448c-1.5466 0-2.7993-1.2526-2.7993-2.7993 0-1.5466 1.2527-2.7993 2.7993-2.7993s2.7993 1.2527 2.7993 2.7993c0 1.5467-1.2527 2.7993-2.7993 2.7993zm0-.6998c1.1617 0 2.0995-.9378 2.0995-2.0995s-.9378-2.0993-2.0995-2.0993-2.0995.9376-2.0995 2.0993.9378 2.0995 2.0995 2.0995z" fill="#fc6d7e"/></g></svg>

<?xml version="1.0" encoding="UTF-8" standalone="no"?>
<!DOCTYPE svg PUBLIC "-//W3C//DTD SVG 1.1//EN" "http://www.w3.org/Graphics/SVG/1.1/DTD/svg11.dtd">
<svg xmlns:dc="http://purl.org/dc/elements/1.1/" version="1.1" xmlns="http://www.w3.org/2000/svg" xmlns:xl="http://www.w3.org/1999/xlink" viewBox="-886.7741 -3200.298 24.999996 25" width="24.999996" height="25">
  <defs/>
  <g id="SOURCES" stroke="none" stroke-dasharray="none" fill-opacity="1" stroke-opacity="1" fill="none">
    <title>SOURCES</title>
    <g id="SOURCES_Dark">
      <title>Dark</title>
      <g id="Graphic_11392">
        <circle cx="-874.2741" cy="-3187.798" r="12.000018268838" fill="#666"/>
        <circle cx="-874.2741" cy="-3187.798" r="12.000018268838" stroke="white" stroke-linecap="round" stroke-linejoin="round" stroke-width=".25"/>
      </g>
      <g id="Graphic_11391">
        <path d="M -881.2479 -3187.9237 C -879.7502 -3191.7797 -875.4183 -3193.6902 -871.5693 -3192.1926 C -869.6098 -3191.4298 -868.0562 -3189.883 -867.3003 -3187.9237 C -867.2654 -3187.8397 -867.2654 -3187.7487 -867.3003 -3187.6717 C -868.791 -3183.8227 -873.1299 -3181.905 -876.9789 -3183.4028 C -878.9384 -3184.1656 -880.485 -3185.7122 -881.2479 -3187.6717 C -881.2828 -3187.7557 -881.2828 -3187.8467 -881.2479 -3187.9237 Z M -876.72 -3184.0536 C -873.2698 -3182.717 -869.3928 -3184.3896 -868.0002 -3187.7977 C -868.707 -3189.5123 -870.0856 -3190.87 -871.8212 -3191.5418 C -875.2713 -3192.8784 -879.1414 -3191.206 -880.541 -3187.7977 C -879.8342 -3186.083 -878.4556 -3184.7255 -876.72 -3184.0536 Z M -874.2706 -3184.9984 C -875.8172 -3184.9984 -877.0699 -3186.251 -877.0699 -3187.7977 C -877.0699 -3189.3443 -875.8172 -3190.597 -874.2706 -3190.597 C -872.724 -3190.597 -871.4713 -3189.3443 -871.4713 -3187.7977 C -871.4713 -3186.251 -872.724 -3184.9984 -874.2706 -3184.9984 Z M -874.2706 -3185.6982 C -873.1089 -3185.6982 -872.1711 -3186.636 -872.1711 -3187.7977 C -872.1711 -3188.9594 -873.1089 -3189.897 -874.2706 -3189.897 C -875.4323 -3189.897 -876.3701 -3188.9594 -876.3701 -3187.7977 C -876.3701 -3186.636 -875.4323 -3185.6982 -874.2706 -3185.6982 Z" fill="#fc6d7e"/>
      </g>
    </g>
  </g>
</svg>
